icon/pk/order.svg

<svg viewBox="0 0 48 48" fill="none" xmlns="http://www.w3.org/2000/svg" height="1em" width="1em">
  <path d="M33.0499 7H38C39.1046 7 40 7.89543 40 9V42C40 43.1046 39.1046 44 38 44H10C8.89543 44 8 43.1046 8 42L8 9C8 7.89543 8.89543 7 10 7H16H17V10H31V7H33.0499Z" fill="#2F88FF" stroke="black" stroke-width="4" stroke-linejoin="round"/>
  <rect x="17" y="4" width="14" height="6" stroke="black" stroke-width="4" stroke-linecap="round" stroke-linejoin="round"/>
  <path d="M26.9996 19L19 27.0012H29.004L21.0003 35.0018" stroke="white" stroke-width="4" stroke-linecap="round" stroke-linejoin="round"/>
</svg>

<svg width="48" height="48" fill="none" xmlns="http://www.w3.org/2000/svg"><path d="M33.05 7H38a2 2 0 0 1 2 2v33a2 2 0 0 1-2 2H10a2 2 0 0 1-2-2V9a2 2 0 0 1 2-2h7v3h14V7h2.05Z" fill="#2F88FF" stroke="#000" stroke-width="4" stroke-linejoin="round"/><path stroke="#000" stroke-width="4" stroke-linecap="round" stroke-linejoin="round" d="M17 4h14v6H17z"/><path d="m27 19-8 8.001h10.004l-8.004 8" stroke="#fff" stroke-width="4" stroke-linecap="round" stroke-linejoin="round"/></svg>
